icons/Grid_1_filled.svg

<svg width="24" height="24" viewBox="0 0 24 24" fill="none" xmlns="http://www.w3.org/2000/svg">
<path fill-rule="evenodd" clip-rule="evenodd" d="M3.25,4c0,-0.41421 0.33579,-0.75 0.75,-0.75h6.5c0.4142,0 0.75,0.33579 0.75,0.75v6.5c0,0.4142 -0.3358,0.75 -0.75,0.75h-6.5c-0.41421,0 -0.75,-0.3358 -0.75,-0.75zM3.25,13.5c0,-0.4142 0.33579,-0.75 0.75,-0.75h6.5c0.4142,0 0.75,0.3358 0.75,0.75v6.5c0,0.4142 -0.3358,0.75 -0.75,0.75h-6.5c-0.41421,0 -0.75,-0.3358 -0.75,-0.75zM20,3.25c0.4142,0 0.75,0.33579 0.75,0.75v6.5c0,0.4142 -0.3358,0.75 -0.75,0.75h-6.5c-0.4142,0 -0.75,-0.3358 -0.75,-0.75v-6.5c0,-0.41421 0.3358,-0.75 0.75,-0.75zM12.75,13.5c0,-0.4142 0.3358,-0.75 0.75,-0.75h6.5c0.4142,0 0.75,0.3358 0.75,0.75v6.5c0,0.4142 -0.3358,0.75 -0.75,0.75h-6.5c-0.4142,0 -0.75,-0.3358 -0.75,-0.75z" fill="#002B51"/>
</svg>

<svg width="24" height="24" viewBox="0 0 24 24" fill="none" xmlns="http://www.w3.org/2000/svg">
<path fill-rule="evenodd" clip-rule="evenodd" d="M3.25 4C3.25 3.58579 3.58579 3.25 4 3.25H10.5C10.9142 3.25 11.25 3.58579 11.25 4V10.5C11.25 10.9142 10.9142 11.25 10.5 11.25H4C3.58579 11.25 3.25 10.9142 3.25 10.5V4ZM3.25 13.5C3.25 13.0858 3.58579 12.75 4 12.75H10.5C10.9142 12.75 11.25 13.0858 11.25 13.5V20C11.25 20.4142 10.9142 20.75 10.5 20.75H4C3.58579 20.75 3.25 20.4142 3.25 20V13.5ZM13.5 3.25C13.0858 3.25 12.75 3.58579 12.75 4V10.5C12.75 10.9142 13.0858 11.25 13.5 11.25H20C20.4142 11.25 20.75 10.9142 20.75 10.5V4C20.75 3.58579 20.4142 3.25 20 3.25H13.5ZM12.75 13.5C12.75 13.0858 13.0858 12.75 13.5 12.75H20C20.4142 12.75 20.75 13.0858 20.75 13.5V20C20.75 20.4142 20.4142 20.75 20 20.75H13.5C13.0858 20.75 12.75 20.4142 12.75 20V13.5Z" fill="#002B51"/>
</svg>
